Resources/Icons/PCGEx_Pin_OUT_TexParam.svg

<?xml version="1.0" encoding="UTF-8"?>
<svg id="icons" xmlns="http://www.w3.org/2000/svg" viewBox="0 0 100 100">
  <defs>
    <style>
      .cls-1 {
        fill: #fff;
      }
    </style>
  </defs>
  <path d="M82.18,30.43v46.02c0,2.76-2.24,5-5,5H29.37c.94,1.5,2.59,2.5,4.49,2.5h44.53c2.93,0,5.3-2.38,5.3-5.3v-44.53c0-1.43-.57-2.73-1.5-3.69ZM77.18,28.82v-4.5h-26.07v26.07h26.07v-21.57ZM51.12,76.45v-26.07h-26.07v26.07h3.5"/>
  <path class="cls-1" d="M77.18,19.32H25.05c-2.76,0-5,2.24-5,5v52.14c0,2.76,2.24,5,5,5h52.14c2.76,0,5-2.24,5-5V24.32c0-2.76-2.24-5-5-5ZM25.05,76.45v-26.07h26.07v-26.07h26.07v26.07h-26.07v26.07"/>
</svg>

<svg xmlns="http://www.w3.org/2000/svg" viewBox="0 0 100 100">
    <defs>
        <style>.cls-1{fill:#fff;}</style>
    </defs>
    <g id="icons">
        <path d="M82.18,30.43v46a5,5,0,0,1-5,5H29.37A5.27,5.27,0,0,0,33.85,84H78.38a5.3,5.3,0,0,0,5.3-5.3V34.12A5.29,5.29,0,0,0,82.18,30.43Zm-5-1.61v-4.5H51.12V50.38H77.18ZM51.12,76.45V50.38H25.05V76.45h3.5"/>
        <path class="cls-1"
              d="M77.18,19.32H25.05a5,5,0,0,0-5,5V76.45a5,5,0,0,0,5,5H77.18a5,5,0,0,0,5-5V24.32A5,5,0,0,0,77.18,19.32ZM25.05,76.45V50.38H51.12V24.32H77.18V50.38H51.12V76.45"/>
    </g>
</svg>
